optimizied/calendar-star.svg

<svg xmlns="http://www.w3.org/2000/svg" viewBox="0 0 24 24" fill="currentColor">
  <path d="M0 0H24V24H0z"/>
  <path d="M4 17V9C4 6.8 5.8 5 8 5H16C18.2 5 20 6.8 20 9V17C20 19.2 18.2 21 16 21H8C5.7 21 4 19.2 4 17ZM8 7V3M16 7V3"/>
  <path d="M11.7999 15.2L10.0999 16.1C9.89991 16.2 9.69989 16 9.69989 15.8L9.99987 13.9C9.99987 13.8 9.9999 13.7 9.8999 13.7L8.49987 12.4C8.29987 12.3 8.39991 12 8.59991 12L10.4999 11.7C10.5999 11.7 10.6999 11.6 10.6999 11.6L11.4999 9.9C11.5999 9.7 11.8999 9.7 11.9999 9.9L12.7999 11.6C12.7999 11.7 12.8999 11.7 12.9999 11.7L14.8999 12C15.0999 12 15.1999 12.3 14.9999 12.4L13.5999 13.7C13.4999 13.8 13.4999 13.8 13.4999 13.9L13.7999 15.8C13.7999 16 13.5999 16.2 13.3999 16.1L11.6999 15.2C11.9999 15.2 11.8999 15.2 11.7999 15.2Z"/>
</svg>

<svg xmlns="http://www.w3.org/2000/svg" viewBox="0 0 24 24" fill="currentColor">
  <path d="M0 0h24v24H0z"/>
  <path stroke-miterlimit="10" stroke-width="1.5" d="M4 17V9c0-2.2 1.8-4 4-4h8c2.2 0 4 1.8 4 4v8c0 2.2-1.8 4-4 4H8c-2.3 0-4-1.8-4-4Z"/>
  <path stroke-linecap="round" stroke-miterlimit="10" stroke-width="1.5" d="M8 7V3m8 4V3"/>
  <path stroke-miterlimit="10" stroke-width="1.5" d="m11.7999 15.2-1.7.9c-.19999.1-.40001-.1-.40001-.3l.29998-1.9c0-.1.00003-.2-.09997-.2l-1.40003-1.3c-.2-.1-.09996-.4.10004-.4l1.89999-.3c.1 0 .2-.1.2-.1l.8-1.7c.1-.2.4-.2.5 0l.8 1.7c0 .1.1.1.2.1l1.9.3c.2 0 .3.3.1.4l-1.4 1.3c-.1.1-.1.1-.1.2l.3 1.9c0 .2-.2.4-.4.3l-1.7-.9h.1Z"/>
</svg>
